packages/components/src/images/icons/arrow_right_long.svg

<svg width="24" height="24" viewBox="0 0 24 24" fill="none" xmlns="http://www.w3.org/2000/svg">
<path fill-rule="evenodd" clip-rule="evenodd" d="M2.625 12C2.625 11.3787 3.12868 10.875 3.75 10.875H20.25C20.8713 10.875 21.375 11.3787 21.375 12C21.375 12.6213 20.8713 13.125 20.25 13.125H3.75C3.12868 13.125 2.625 12.6213 2.625 12Z" fill="currentColor"/>
<path fill-rule="evenodd" clip-rule="evenodd" d="M12.7045 4.4545C13.1438 4.01517 13.8562 4.01517 14.2955 4.4545L21.0455 11.2045C21.4848 11.6438 21.4848 12.3562 21.0455 12.7955L14.2955 19.5455C13.8562 19.9848 13.1438 19.9848 12.7045 19.5455C12.2652 19.1062 12.2652 18.3938 12.7045 17.9545L18.659 12L12.7045 6.0455C12.2652 5.60616 12.2652 4.89384 12.7045 4.4545Z" fill="currentColor"/>
</svg>

<svg viewBox="0 0 24 24" fill="none" xmlns="http://www.w3.org/2000/svg"><path fill-rule="evenodd" clip-rule="evenodd" d="M2.625 12c0-.621.504-1.125 1.125-1.125h16.5a1.125 1.125 0 0 1 0 2.25H3.75A1.125 1.125 0 0 1 2.625 12Z" fill="currentColor"/><path fill-rule="evenodd" clip-rule="evenodd" d="M12.704 4.455c.44-.44 1.152-.44 1.591 0l6.75 6.75c.44.439.44 1.151 0 1.59l-6.75 6.75a1.125 1.125 0 0 1-1.59-1.59L18.659 12l-5.954-5.955a1.125 1.125 0 0 1 0-1.59Z" fill="currentColor"/></svg>
